!!!OTL: WENN DER SCHNEE VON DER ALMA WEGGAGEHT
!!!ARE: Europa, Mitteleuropa, Oesterreich, Tirol
!!!SCT: F0226
!!!YEM: Copyright 1995, estate of Helmut Schaffrath.
**kern
*ICvox
*Ivox
*M3/4
*k[f#c#g#]
*A:
{8.e
16f#
=1
8e
8a
8a
8a
8a
8a
=2
8.dd
16dd
4g#}
{8.e
16f#
=3
8e
8g#
8g#
8g#
8f#
8e
=4
8cc#
8cc#
4a}
{12e
12f#
12g#
=5
8.a
16a
8cc#
8b
8a
8g#
=6
8.f#
16f#
8dd
8cc#
8b
8a}
=7
{8.g#
16ee
8ee
8ee
8.dd
16b
=8
2a}
{12e
12f#
12g#
=9
4a
8c#
8e
8a
8cc#
=10
8dd
16r
16cc#
8dd
16r
16cc#
4b}
=11
{8dd
16r
16cc#
8dd
16r
16cc#
4b
=12
8cc#
16r
16b
8cc#
16r
16b
4a}
=13
{4e
8c#
8e
8a
8cc#
=14
8dd
16r
16cc#
8dd
16r
16cc#
8b
16r}
{16a
=15
8g#
8b
8dd
8ff#
8ee
16r
16g#
=16
4a
8aa
8r}
==
!!!AGN: Jahreszeiten - Lied, Fruehling
!!!ONB: ESAC (Essen Associative Code) Database: FINK
!!!AMT: simple triple
!!!AIN: vox
!!!EED: Helmut Schaffrath
!!!EEV: 1.0
*-
